src/assets/imgs/icons/external.svg

<svg width="33" height="32" viewBox="0 0 33 32" fill="none" xmlns="http://www.w3.org/2000/svg">
<path d="M31.7571 0.322021L21.5571 0.332433C21.3184 0.332433 21.0895 0.425345 20.9207 0.590731C20.7519 0.756117 20.6571 0.980428 20.6571 1.21432V3.25429C20.6571 3.37161 20.6809 3.48776 20.7273 3.59593C20.7737 3.7041 20.8416 3.80212 20.9271 3.88425C21.0126 3.96637 21.114 4.03096 21.2252 4.07422C21.3365 4.11748 21.4555 4.13854 21.5752 4.13618L26.1771 3.9696L26.3059 4.09576L8.8771 21.1744C8.80719 21.2426 8.75171 21.3238 8.71385 21.4131C8.676 21.5024 8.65651 21.5982 8.65651 21.6949C8.65651 21.7916 8.676 21.8874 8.71385 21.9767C8.75171 22.0661 8.80719 22.1472 8.8771 22.2155L10.3146 23.624C10.3843 23.6925 10.4671 23.7469 10.5582 23.784C10.6494 23.8211 10.7471 23.8402 10.8459 23.8402C10.9446 23.8402 11.0423 23.8211 11.1335 23.784C11.2246 23.7469 11.3074 23.6925 11.3771 23.624L28.8059 6.54545L28.9346 6.6716L28.7646 11.1809C28.7622 11.2982 28.7837 11.4147 28.8278 11.5238C28.872 11.6329 28.9379 11.7322 29.0217 11.816C29.1055 11.8997 29.2056 11.9663 29.316 12.0117C29.4263 12.0571 29.5449 12.0805 29.6646 12.0805H31.7465C31.9852 12.0805 32.2141 11.9876 32.3829 11.8222C32.5517 11.6568 32.6465 11.4325 32.6465 11.1986L32.6571 1.20391C32.6571 0.970017 32.5623 0.745706 32.3935 0.58032C32.2247 0.414934 31.9958 0.322021 31.7571 0.322021V0.322021ZM27.6571 17.9598H26.6571C26.3919 17.9598 26.1375 18.063 25.95 18.2467C25.7625 18.4305 25.6571 18.6797 25.6571 18.9396V28.3709C25.6571 28.4684 25.6176 28.5618 25.5473 28.6307C25.4769 28.6997 25.3816 28.7384 25.2821 28.7384H4.0321C3.93265 28.7384 3.83727 28.6997 3.76694 28.6307C3.69661 28.5618 3.6571 28.4684 3.6571 28.3709V7.54859C3.6571 7.45114 3.69661 7.35767 3.76694 7.28876C3.83727 7.21985 3.93265 7.18114 4.0321 7.18114H13.6571C13.9223 7.18114 14.1767 7.0779 14.3642 6.89414C14.5517 6.71038 14.6571 6.46114 14.6571 6.20126V5.22139C14.6571 4.96151 14.5517 4.71228 14.3642 4.52852C14.1767 4.34475 13.9223 4.24152 13.6571 4.24152H3.6571C2.86145 4.24152 2.09839 4.55123 1.53578 5.10251C0.973175 5.6538 0.657104 6.4015 0.657104 7.18114L0.657104 28.7384C0.657104 29.518 0.973175 30.2657 1.53578 30.817C2.09839 31.3683 2.86145 31.678 3.6571 31.678H25.6571C26.4528 31.678 27.2158 31.3683 27.7784 30.817C28.341 30.2657 28.6571 29.518 28.6571 28.7384V18.9396C28.6571 18.6797 28.5517 18.4305 28.3642 18.2467C28.1767 18.063 27.9223 17.9598 27.6571 17.9598Z" fill="currentColor"/>
</svg>

<svg xmlns="http://www.w3.org/2000/svg" fill="none" viewBox="0 0 33 32">
  <path fill="currentColor" d="m31.76.32-10.2.01a.9.9 0 0 0-.64.26.87.87 0 0 0-.26.62v2.04a.87.87 0 0 0 .27.63.9.9 0 0 0 .65.26l4.6-.17.13.13L8.88 21.17a.73.73 0 0 0-.22.52.72.72 0 0 0 .22.53l1.43 1.4a.75.75 0 0 0 .82.16c.1-.03.18-.09.25-.16L28.8 6.55l.12.12-.17 4.51a.87.87 0 0 0 .26.64.9.9 0 0 0 .64.26h2.09a.9.9 0 0 0 .63-.26.87.87 0 0 0 .27-.62v-10c0-.23-.09-.45-.26-.62a.9.9 0 0 0-.63-.26Zm-4.1 17.64h-1c-.27 0-.52.1-.71.29a.97.97 0 0 0-.3.69v9.43c0 .1-.03.2-.1.26a.38.38 0 0 1-.27.1H4.03c-.1 0-.2-.03-.26-.1a.36.36 0 0 1-.11-.26V7.55c0-.1.04-.2.1-.26.08-.07.17-.1.27-.1h9.63c.26 0 .52-.11.7-.3.2-.18.3-.43.3-.69v-.98a1.01 1.01 0 0 0-1-.98h-10c-.8 0-1.56.31-2.12.86-.57.55-.88 1.3-.88 2.08v21.56c0 .78.31 1.53.88 2.08.56.55 1.32.86 2.12.86h22c.8 0 1.56-.31 2.12-.86s.88-1.3.88-2.08v-9.8a1.01 1.01 0 0 0-1-.98Z"/>
</svg>
